X: 39698
T: Terms Cash
R: jig
M: 6/8
K: Gmajor
D|:GBA G2D|EGD EGD|GBA G2B|AGA BGD
GBA G2D|EGD EGA|~B3AGE|DEF G2D:|
|:Bdg e2d|BAB BAG|Adg e2g|fga bge|
Bdg e2d|BAB BAG|~B3 AGA|GEF G3:|

